build/assets/img/stage-analysis/image-element-4.svg

<svg width="48" height="48" viewBox="0 0 48 48" fill="none" xmlns="http://www.w3.org/2000/svg">
<g filter="url(#filter0_di)">
<path d="M19.6132 24.1725H37.2727C37.2729 27.6799 36.2494 31.1095 34.3304 34.0317C32.4115 36.954 29.6824 39.2392 26.4847 40.6011C23.2871 41.9631 19.763 42.3413 16.3537 41.6885C12.9444 41.0356 9.80136 39.3807 7.3181 36.9309C4.83484 34.4811 3.12169 31.3453 2.39313 27.9161C1.66457 24.4868 1.95298 20.9165 3.22224 17.6522C4.49151 14.3878 6.68523 11.5745 9.52876 9.56432C12.3723 7.55417 15.7393 6.43656 19.2082 6.35141L19.6132 24.1725Z" fill="#B4D1FA"/>
<path d="M24.3694 19.827L23.9644 2.00006C28.689 1.98666 33.2411 3.79371 36.694 7.05336C39.9821 10.3758 41.8816 14.8483 42 19.5463L24.3694 19.827Z" fill="#0A3D76"/>
</g>
<defs>
<filter id="filter0_di" x="0" y="-1.33514e-05" width="48" height="48" filterUnits="userSpaceOnUse" color-interpolation-filters="sRGB">
<feFlood flood-opacity="0" result="BackgroundImageFix"/>
<feColorMatrix in="SourceAlpha" type="matrix" values="0 0 0 0 0 0 0 0 0 0 0 0 0 0 0 0 0 0 127 0"/>
<feOffset dx="2" dy="2"/>
<feGaussianBlur stdDeviation="2"/>
<feColorMatrix type="matrix" values="0 0 0 0 0 0 0 0 0 0 0 0 0 0 0 0 0 0 0.15 0"/>
<feBlend mode="normal" in2="BackgroundImageFix" result="effect1_dropShadow"/>
<feBlend mode="normal" in="SourceGraphic" in2="effect1_dropShadow" result="shape"/>
<feColorMatrix in="SourceAlpha" type="matrix" values="0 0 0 0 0 0 0 0 0 0 0 0 0 0 0 0 0 0 127 0" result="hardAlpha"/>
<feOffset dx="-2" dy="-2"/>
<feGaussianBlur stdDeviation="2"/>
<feComposite in2="hardAlpha" operator="arithmetic" k2="-1" k3="1"/>
<feColorMatrix type="matrix" values="0 0 0 0 0 0 0 0 0 0 0 0 0 0 0 0 0 0 0.2 0"/>
<feBlend mode="normal" in2="shape" result="effect2_innerShadow"/>
</filter>
</defs>
</svg>

<svg width="48" height="48" fill="none" xmlns="http://www.w3.org/2000/svg"><g filter="url(#filter0_di)"><path d="M19.613 24.172h17.66c0 3.508-1.024 6.938-2.943 9.86a17.68 17.68 0 01-7.845 6.57 17.462 17.462 0 01-10.131 1.087 17.574 17.574 0 01-9.036-4.758 17.881 17.881 0 01-4.925-9.015c-.728-3.43-.44-7 .83-10.264a17.798 17.798 0 016.306-8.088 17.51 17.51 0 019.68-3.213l.404 17.821z" fill="#B4D1FA"/><path d="M24.37 19.827L23.963 2a18.465 18.465 0 0112.73 5.053A18.42 18.42 0 0142 19.546l-17.63.281z" fill="#0A3D76"/></g><defs><filter id="filter0_di" x="0" y="0" width="48" height="48" filterUnits="userSpaceOnUse" color-interpolation-filters="sRGB"><feFlood flood-opacity="0" result="BackgroundImageFix"/><feColorMatrix in="SourceAlpha" values="0 0 0 0 0 0 0 0 0 0 0 0 0 0 0 0 0 0 127 0"/><feOffset dx="2" dy="2"/><feGaussianBlur stdDeviation="2"/><feColorMatrix values="0 0 0 0 0 0 0 0 0 0 0 0 0 0 0 0 0 0 0.15 0"/><feBlend in2="BackgroundImageFix" result="effect1_dropShadow"/><feBlend in="SourceGraphic" in2="effect1_dropShadow" result="shape"/><feColorMatrix in="SourceAlpha" values="0 0 0 0 0 0 0 0 0 0 0 0 0 0 0 0 0 0 127 0" result="hardAlpha"/><feOffset dx="-2" dy="-2"/><feGaussianBlur stdDeviation="2"/><feComposite in2="hardAlpha" operator="arithmetic" k2="-1" k3="1"/><feColorMatrix values="0 0 0 0 0 0 0 0 0 0 0 0 0 0 0 0 0 0 0.2 0"/><feBlend in2="shape" result="effect2_innerShadow"/></filter></defs></svg>
